; generated by PrusaSlicer 2.6.0-alpha4+win64 on 2023-04-27 at 15:35:01 UTC


;
;

;
;
; TODO: check the size of the extruder and the y-bar clearance. Optimize & test supports.

; external perimeters extrusion width = 0.26mm
; perimeters extrusion width = 0.27mm
; infill extrusion width = 0.27mm
; solid infill extrusion width = 0.27mm
; top infill extrusion width = 0.27mm
; support material extrusion width = 0.27mm
; first layer extrusion width = 0.35mm

M107
M190 S90 ; set bed temperature and wait for it to be reached
M104 S255 ; set temperature
;TYPE:Custom
print_start
M109 S255 ; set temperature and wait for it to be reached
G21 ; set units to millimeters
G90 ; use absolute coordinates
M83 ; use relative distances for extrusion
SET_PRESSURE_ADVANCE EXTRUDER=extruder ADVANCE=0.055
SET_HEATER_TEMPERATURE HEATER=heater_bed TARGET=90
SET_HEATER_TEMPERATURE HEATER=extruder TARGET=250
M107
;LAYER_CHANGE
;Z:0.15
;HEIGHT:0.15
;BEFORE_LAYER_CHANGE
;0.15
G92 E0

G1 Z.15 F18000
;AFTER_LAYER_CHANGE
;0.15
G1 E-.75 F3000
G1 Z.55 F18000
G1 X118.76 Y44.431
G1 Z.15
G1 E.75 F1800
M204 S4000
;TYPE:Skirt/Brim
;WIDTH:0.35
G1 X119.866 Y43.052 E.03504
G1 X122.319 Y42.2 E.05147
G1 X155.337 Y42.2 E.6544
G1 X156.384 Y42.341 E.02094
G1 X228.728 Y62.201 E1.48687
G1 X230.284 Y63.038 E.03502
G1 X231.321 Y64.469 E.03503
G1 X231.635 Y66.013 E.03123
G1 X231.634 Y97.513 E.62431
G1 X231.239 Y99.236 E.03503
G1 X230.133 Y100.614 E.03502
G1 X228.74 Y101.322 E.03097
G1 X156.41 Y121.432 E1.48792
G1 X155.351 Y121.577 E.02118
G1 X122.319 Y121.577 E.65468
G1 X120.596 Y121.182 E.03503
G1 X119.218 Y120.076 E.03502
G1 X118.365 Y117.623 E.05147
G1 X118.365 Y46.153 E1.4165
G1 X118.752 Y44.467 E.03428
M204 S8000
G1 X119.069 Y44.543 F18000
M204 S4000
G1 F1800
G1 X119.078 Y44.506 E.00075
G1 X120.176 Y43.216 E.03357
G1 X122.319 Y42.517 E.04468
G1 X155.337 Y42.517 E.6544
G1 X156.3 Y42.647 E.01926
G1 X228.644 Y62.507 E1.48687
G1 X230.127 Y63.324 E.03356
G1 X231.08 Y64.724 E.03357
G1 X231.317 Y66.013 E.02598
G1 X231.316 Y97.513 E.62431
G1 X230.922 Y99.16 E.03356
G1 X229.824 Y100.45 E.03357
G1 X228.655 Y101.016 E.02574
G1 X156.325 Y121.126 E1.48792
G1 X155.351 Y121.259 E.01948
G1 X122.319 Y121.259 E.65468
G1 X120.672 Y120.864 E.03357
G1 X119.382 Y119.766 E.03357
G1 X118.683 Y117.623 E.04468
G1 X118.683 Y46.153 E1.4165
G1 X119.06 Y44.58 E.03206
M204 S8000
G1 X119.376 Y44.659 F18000
M204 S4000
G1 F1800
G1 X119.395 Y44.585 E.00151
G1 X120.483 Y43.389 E.03204
G1 X122.319 Y42.835 E.03801
G1 X155.337 Y42.835 E.6544
G1 X156.215 Y42.954 E.01756
G1 X228.559 Y62.814 E1.48687
G1 X229.967 Y63.609 E.03205
G1 X230.832 Y64.975 E.03205
G1 X230.999 Y66.013 E.02084
G1 X230.998 Y97.513 E.62431
G1 X230.604 Y99.082 E.03206
G1 X229.516 Y100.277 E.03203
G1 X228.569 Y100.71 E.02064
G1 X156.24 Y120.82 E1.4879
G1 X155.351 Y120.941 E.01778
G1 X122.319 Y120.941 E.65468
G1 X120.751 Y120.547 E.03204
G1 X119.555 Y119.459 E.03204
G1 X119.001 Y117.623 E.03801
G1 X119.001 Y46.153 E1.4165
G1 X119.367 Y44.695 E.02979
M204 S8000
G1 E-.75 F3000
G1 Z.55 F18000
G1 X123.129 Y46.964
G1 Z.15
G1 E.75 F1800
M204 S4000
;TYPE:Perimeter
;WIDTH:0.349999
G1 X126.706 Y46.964 E.07089
G1 X126.467 Y47.11 E.00555
G1 X126.308 Y47.587 E.00997
G1 X126.308 Y49.387 E.03567
G1 X126.174 Y49.264 E.00361
G1 X125.682 Y48.994 E.01112
G1 X125.26 Y48.898 E.00858
G1 X124.828 Y48.923 E.00858
G1 X124.575 Y48.987 E.00517
G1 X124.08 Y49.251 E.01112
G1 X123.697 Y49.662 E.01113
;WIDTH:0.361768
G1 X123.463 Y50.174 E.01157
G1 X123.425 Y50.473 E.00619
;WIDTH:0.362452
G1 X123.463 Y51.039 E.01168
G1 X123.697 Y51.544 E.01146
;WIDTH:0.349999
G1 X124.08 Y51.955 E.01113
G1 X124.575 Y52.219 E.01112
G1 X124.828 Y52.283 E.00517
G1 X125.37 Y52.29 E.01074
G1 X125.207 Y53.236 E.01903
G1 X125.159 Y54.149 E.01812
G1 X125.207 Y54.97 E.0163
G1 X125.368 Y55.915 E.019
G1 X124.828 Y55.923 E.0107
G1 X124.575 Y55.987 E.00517
G1 X124.08 Y56.251 E.01112
G1 X123.697 Y56.662 E.01113
;WIDTH:0.361769
G1 X123.463 Y57.174 E.01157
G1 X123.425 Y57.473 E.00619
;WIDTH:0.362452
G1 X123.463 Y58.039 E.01168
G1 X123.697 Y58.544 E.01146
;WIDTH:0.349999
G1 X124.08 Y58.955 E.01113
G1 X124.575 Y59.219 E.01112
G1 X124.858 Y59.286 E.00576
G1 X125.39 Y59.286 E.01054
G1 X125.921 Y59.107 E.01111
G1 X126.308 Y58.819 E.00956
G1 X126.308 Y60.589 E.03508
G1 X126.377 Y60.942 E.00713
G1 X126.501 Y61.138 E.0046
G1 X126.819 Y61.361 E.0077
G1 X127.103 Y61.414 E.00573
G1 X129.986 Y61.414 E.05714
G1 X130.638 Y61.666 E.01385
G1 X131.464 Y61.889 E.01696
G1 X132.308 Y62.021 E.01693
G1 X133.161 Y62.063 E.01693
G1 X134.015 Y62.012 E.01696
G1 X134.857 Y61.87 E.01692
G1 X135.68 Y61.64 E.01694
G1 X136.252 Y61.414 E.01219
G1 X151.135 Y61.414 E.29497
G1 X151.408 Y61.365 E.0055
G1 X151.672 Y61.205 E.00612
G1 X151.865 Y60.934 E.00659
G1 X151.929 Y60.619 E.00637
G1 X151.929 Y58.817 E.03571
G1 X152.298 Y59.098 E.00919
G1 X152.828 Y59.283 E.01113
G1 X153.211 Y59.311 E.00761
G1 X153.682 Y59.212 E.00954
G1 X153.922 Y59.107 E.00519
G1 X154.345 Y58.791 E.01046
G1 X154.653 Y58.358 E.01053
G1 X154.812 Y57.848 E.01059
G1 X154.799 Y57.283 E.0112
G1 X154.634 Y56.808 E.00997
G1 X154.292 Y56.358 E.0112
G1 X153.815 Y56.04 E.01136
G1 X153.373 Y55.916 E.0091
G1 X152.828 Y55.923 E.0108
G1 X152.298 Y56.108 E.01113
G1 X151.929 Y56.39 E.0092
G1 X151.929 Y51.817 E.09063
G1 X152.298 Y52.098 E.00919
G1 X152.828 Y52.283 E.01113
G1 X153.373 Y52.291 E.0108
G1 X153.815 Y52.166 E.0091
G1 X154.292 Y51.848 E.01136
G1 X154.575 Y51.496 E.00895
G1 X154.774 Y51.012 E.01037
G1 X154.817 Y50.452 E.01113
G1 X154.676 Y49.909 E.01112
G1 X154.366 Y49.441 E.01113
G1 X154.174 Y49.264 E.00518
G1 X153.682 Y48.994 E.01112
G1 X153.194 Y48.895 E.00987
G1 X152.828 Y48.923 E.00728
G1 X152.298 Y49.108 E.01113
G1 X151.929 Y49.39 E.0092
G1 X151.929 Y47.587 E.03573
G1 X151.771 Y47.11 E.00996
G1 X151.477 Y46.964 E.00651
G1 X155.116 Y46.964 E.07212
G1 X188.692 Y66.755 E.77246
G1 X189.015 Y66.824 E.00655
G1 X226.871 Y66.824 E.75028
G1 X226.87 Y71.102 E.08479
G1 X226.87 Y96.702 E.50738
G1 X216.355 Y96.702 E.2084
G1 X216.355 Y92.724 E.07884
G1 X220.061 Y92.724 E.07345
G1 X220.265 Y92.697 E.00408
G1 X220.6 Y92.512 E.00758
G1 X220.788 Y92.249 E.00641
G1 X220.855 Y91.929 E.00648
G1 X220.855 Y89.997 E.03829
G1 X220.774 Y89.647 E.00712
G1 X220.597 Y89.411 E.00585
G1 X220.349 Y89.257 E.00579
G1 X220.061 Y89.202 E.00581
G1 X216.355 Y89.202 E.07345
G1 X216.355 Y80.824 E.16605
G1 X219.407 Y80.824 E.06049
G1 X219.258 Y81.272 E.00936
G1 X219.208 Y81.863 E.01176
G1 X219.309 Y82.458 E.01196
G1 X219.554 Y83.009 E.01195
G1 X219.928 Y83.482 E.01195
G1 X220.409 Y83.847 E.01197
G1 X220.965 Y84.081 E.01196
G1 X221.561 Y84.169 E.01194
G1 X222.161 Y84.106 E.01196
G1 X222.727 Y83.896 E.01197
G1 X223.222 Y83.552 E.01195
G1 X223.617 Y83.096 E.01196
G1 X223.885 Y82.556 E.01195
G1 X224.011 Y81.966 E.01196
G1 X223.986 Y81.363 E.01196
G1 X223.812 Y80.785 E.01196
G1 X223.5 Y80.269 E.01195
G1 X223.069 Y79.847 E.01196
G1 X222.547 Y79.545 E.01195
G1 X221.961 Y79.382 E.01206
G1 X221.353 Y79.371 E.01205
G1 X220.855 Y79.481 E.01011
G1 X220.855 Y75.497 E.07896
G1 X220.775 Y75.148 E.0071
G1 X220.576 Y74.892 E.00643
G1 X220.347 Y74.756 E.00528
G1 X220.061 Y74.702 E.00577
G1 X216.355 Y74.702 E.07345
G1 X216.355 Y69.597 E.10118
G1 X216.324 Y69.375 E.00444
G1 X216.197 Y69.12 E.00565
G1 X215.935 Y68.896 E.00683
G1 X215.561 Y68.802 E.00764
G1 X192.129 Y68.802 E.46441
G1 X191.798 Y68.875 E.00672
G1 X191.546 Y69.057 E.00616
G1 X191.401 Y69.279 E.00526
G1 X191.334 Y69.597 E.00644
G1 X191.334 Y89.202 E.38856
G1 X188.382 Y89.202 E.05851
G1 X187.406 Y89.234 E.01935
G1 X187.152 Y89.361 E.00563
G1 X186.928 Y89.623 E.00683
G1 X186.834 Y89.997 E.00764
G1 X186.834 Y91.929 E.03829
G1 X186.906 Y92.259 E.00669
G1 X187.086 Y92.51 E.00612
G1 X187.307 Y92.655 E.00524
G1 X187.629 Y92.724 E.00653
G1 X191.334 Y92.724 E.07343
G1 X191.334 Y96.702 E.07884
G1 X187.629 Y96.702 E.07343
G1 X186.791 Y96.73 E.01662
G1 X186.572 Y96.826 E.00474
G1 X155.116 Y116.812 E.73864
G1 X151.532 Y116.812 E.07103
G1 X151.771 Y116.666 E.00555
G1 X151.929 Y116.189 E.00996
G1 X151.929 Y114.387 E.03571
G1 X152.298 Y114.668 E.00919
G1 X152.828 Y114.853 E.01113
G1 X153.194 Y114.881 E.00728
G1 X153.682 Y114.782 E.00987
G1 X154.174 Y114.512 E.01112
G1 X154.552 Y114.097 E.01113
G1 X154.695 Y113.804 E.00646
G1 X154.805 Y113.368 E.00891
G1 X154.805 Y112.978 E.00773
G1 X154.638 Y112.388 E.01215
G1 X154.292 Y111.928 E.01141
G1 X153.815 Y111.61 E.01136
G1 X153.373 Y111.486 E.0091
G1 X152.828 Y111.493 E.0108
G1 X152.298 Y111.678 E.01113
G1 X151.929 Y111.96 E.0092
G1 X151.929 Y107.387 E.09063
G1 X152.298 Y107.668 E.00919
G1 X152.828 Y107.853 E.01113
G1 X153.373 Y107.861 E.0108
G1 X153.815 Y107.736 E.0091
G1 X154.174 Y107.512 E.00839
G1 X154.366 Y107.335 E.00518
G1 X154.665 Y106.897 E.01051
G1 X154.805 Y106.368 E.01085
G1 X154.822 Y106.065 E.00601
G1 X154.695 Y105.542 E.01067
G1 X154.571 Y105.274 E.00585
G1 X154.24 Y104.882 E.01017
G1 X153.8 Y104.604 E.01032
G1 X153.314 Y104.474 E.00997
G1 X152.828 Y104.493 E.00964
G1 X152.298 Y104.678 E.01113
G1 X151.929 Y104.96 E.0092
G1 X151.929 Y103.157 E.03573
G1 X151.853 Y102.817 E.0069
G1 X151.661 Y102.561 E.00634
G1 X151.359 Y102.395 E.00683
G1 X151.135 Y102.362 E.00449
G1 X145.224 Y102.362 E.11715
G1 X145.495 Y102.051 E.00818
G1 X145.807 Y101.535 E.01195
G1 X145.981 Y100.958 E.01194
G1 X146.006 Y100.355 E.01196
G1 X145.88 Y99.765 E.01196
G1 X145.612 Y99.225 E.01195
G1 X145.199 Y98.753 E.01243
G1 X151.135 Y98.753 E.11765
G1 X151.359 Y98.72 E.00449
G1 X151.661 Y98.554 E.00683
G1 X151.853 Y98.298 E.00634
G1 X151.929 Y97.958 E.0069
G1 X151.929 Y96.156 E.03571
G1 X152.298 Y96.437 E.00919
G1 X152.828 Y96.622 E.01113
G1 X153.314 Y96.641 E.00964
G1 X153.8 Y96.511 E.00997
G1 X154.24 Y96.233 E.01032
G1 X154.552 Y95.866 E.00955
G1 X154.695 Y95.573 E.00646
G1 X154.817 Y95.083 E.01001
G1 X154.805 Y94.747 E.00666
G1 X154.618 Y94.118 E.01301
G1 X154.292 Y93.697 E.01055
G1 X153.815 Y93.379 E.01136
G1 X153.373 Y93.255 E.0091
G1 X152.828 Y93.262 E.0108
G1 X152.298 Y93.447 E.01113
G1 X151.929 Y93.729 E.0092
G1 X151.929 Y89.156 E.09063
G1 X152.298 Y89.437 E.00919
G1 X152.828 Y89.622 E.01113
G1 X153.373 Y89.63 E.0108
G1 X153.815 Y89.505 E.0091
G1 X154.292 Y89.187 E.01136
G1 X154.552 Y88.866 E.00819
G1 X154.673 Y88.646 E.00498
G1 X154.814 Y88.159 E.01005
G1 X154.793 Y87.595 E.01119
G1 X154.603 Y87.093 E.01064
G1 X154.292 Y86.697 E.00998
G1 X153.842 Y86.392 E.01077
G1 X153.314 Y86.243 E.01087
G1 X152.828 Y86.262 E.00964
G1 X152.298 Y86.447 E.01113
G1 X151.929 Y86.729 E.0092
G1 X151.929 Y84.926 E.03573
G1 X151.888 Y84.672 E.0051
G1 X151.734 Y84.404 E.00613
G1 X151.418 Y84.184 E.00763
G1 X151.135 Y84.131 E.00571
G1 X136.252 Y84.131 E.29497
G1 X135.599 Y83.879 E.01387
G1 X134.774 Y83.657 E.01693
;WIDTH:0.387551
G1 X133.929 Y83.505 E.01903
G1 X133.057 Y83.485 E.01933
;WIDTH:0.349999
G1 X132.223 Y83.533 E.01656
G1 X131.38 Y83.675 E.01694
G1 X130.557 Y83.906 E.01694
G1 X129.986 Y84.131 E.01216
G1 X127.103 Y84.131 E.05714
G1 X126.853 Y84.172 E.00502
G1 X126.543 Y84.362 E.00721
G1 X126.366 Y84.628 E.00633
G1 X126.308 Y84.926 E.00602
G1 X126.308 Y86.726 E.03567
G1 X125.921 Y86.438 E.00956
G1 X125.39 Y86.259 E.01111
G1 X125.099 Y86.24 E.00578
G1 X124.575 Y86.326 E.01052
G1 X124.08 Y86.59 E.01112
G1 X123.697 Y87.001 E.01113
;WIDTH:0.36177
G1 X123.463 Y87.513 E.01157
G1 X123.425 Y87.812 E.00619
;WIDTH:0.362452
G1 X123.463 Y88.378 E.01168
G1 X123.697 Y88.883 E.01146
;WIDTH:0.349999
G1 X124.08 Y89.294 E.01113
G1 X124.575 Y89.558 E.01112
G1 X124.828 Y89.622 E.00517
G1 X125.368 Y89.63 E.0107
G1 X125.207 Y90.575 E.019
G1 X125.159 Y91.488 E.01812
G1 X125.207 Y92.309 E.0163
G1 X125.368 Y93.254 E.019
G1 X124.828 Y93.262 E.0107
G1 X124.575 Y93.326 E.00517
G1 X124.08 Y93.59 E.01112
G1 X123.697 Y94.001 E.01113
;WIDTH:0.361769
G1 X123.463 Y94.513 E.01157
G1 X123.425 Y94.812 E.00619
;WIDTH:0.362452
G1 X123.463 Y95.378 E.01168
G1 X123.697 Y95.883 E.01146
;WIDTH:0.349999
G1 X124.08 Y96.294 E.01113
G1 X124.575 Y96.558 E.01112
G1 X124.858 Y96.625 E.00576
G1 X125.39 Y96.625 E.01054
G1 X125.921 Y96.446 E.01111
G1 X126.308 Y96.158 E.00956
G1 X126.308 Y97.928 E.03508
G1 X126.38 Y98.288 E.00728
G1 X126.51 Y98.487 E.00471
G1 X126.672 Y98.626 E.00423
G1 X126.859 Y98.714 E.0041
G1 X127.103 Y98.753 E.0049
G1 X129.986 Y98.753 E.05714
G1 X130.638 Y99.005 E.01385
G1 X131.464 Y99.228 E.01696
G1 X132.308 Y99.36 E.01693
G1 X133.161 Y99.402 E.01693
G1 X134.015 Y99.351 E.01696
G1 X134.857 Y99.209 E.01692
G1 X135.68 Y98.978 E.01694
G1 X136.252 Y98.753 E.01218
G1 X142.028 Y98.753 E.11448
G1 X141.787 Y98.984 E.00662
G1 X141.453 Y99.486 E.01195
G1 X141.254 Y100.056 E.01197
G1 X141.197 Y100.558 E.01001
G1 X141.254 Y101.059 E.00999
G1 X141.453 Y101.629 E.01197
G1 X141.787 Y102.131 E.01195
G1 X142.028 Y102.362 E.00662
G1 X136.252 Y102.362 E.11448
G1 X135.599 Y102.11 E.01387
G1 X134.774 Y101.887 E.01694
G1 X133.928 Y101.755 E.01697
G1 X133.057 Y101.715 E.01728
G1 X132.223 Y101.764 E.01656
G1 X131.38 Y101.906 E.01694
G1 X130.557 Y102.137 E.01694
G1 X129.986 Y102.362 E.01216
G1 X127.033 Y102.365 E.05853
G1 X126.672 Y102.489 E.00757
G1 X126.51 Y102.628 E.00423
G1 X126.38 Y102.827 E.00471
G1 X126.308 Y103.157 E.00669
G1 X126.308 Y104.957 E.03567
G1 X125.921 Y104.669 E.00956
G1 X125.39 Y104.49 E.01111
G1 X125.099 Y104.471 E.00578
G1 X124.575 Y104.557 E.01052
G1 X124.08 Y104.821 E.01112
G1 X123.697 Y105.232 E.01113
;WIDTH:0.361769
G1 X123.463 Y105.744 E.01157
G1 X123.425 Y106.043 E.00619
;WIDTH:0.362452
G1 X123.463 Y106.609 E.01168
G1 X123.697 Y107.114 E.01146
;WIDTH:0.349999
G1 X124.08 Y107.525 E.01113
G1 X124.575 Y107.789 E.01112
G1 X124.828 Y107.853 E.00517
G1 X125.37 Y107.86 E.01074
G1 X125.207 Y108.806 E.01903
G1 X125.159 Y109.719 E.01812
G1 X125.207 Y110.54 E.0163
G1 X125.368 Y111.485 E.019
G1 X124.828 Y111.493 E.0107
G1 X124.575 Y111.557 E.00517
G1 X124.08 Y111.821 E.01112
G1 X123.697 Y112.232 E.01113
;WIDTH:0.36177
G1 X123.463 Y112.744 E.01157
G1 X123.425 Y113.043 E.00619
;WIDTH:0.362452
G1 X123.463 Y113.609 E.01168
G1 X123.697 Y114.114 E.01146
;WIDTH:0.349999
G1 X124.08 Y114.525 E.01113
G1 X124.586 Y114.794 E.01136
G1 X125.129 Y114.878 E.01089
G1 X125.39 Y114.856 E.00519
G1 X125.921 Y114.677 E.01111
G1 X126.308 Y114.389 E.00956
G1 X126.308 Y116.189 E.03567
G1 X126.467 Y116.666 E.00997
G1 X126.76 Y116.812 E.00649
G1 X123.129 Y116.812 E.07196
G1 X123.129 Y114.258 E.05062
;WIDTH:0.361771
G1 X123.123 Y113.018 E.02549
;WIDTH:0.349999
G1 X123.129 Y107.258 E.11416
;WIDTH:0.36177
G1 X123.123 Y106.018 E.02549
;WIDTH:0.349999
G1 X123.129 Y96.027 E.19802
;WIDTH:0.36177
G1 X123.123 Y94.787 E.02549
;WIDTH:0.349999
G1 X123.129 Y89.027 E.11416
;WIDTH:0.36177
G1 X123.123 Y87.787 E.02549
;WIDTH:0.349999
G1 X123.129 Y79.798 E.15834
;WIDTH:0.36177
G1 X123.123 Y78.558 E.02549
;WIDTH:0.349999
G1 X123.129 Y72.798 E.11416
;WIDTH:0.361771
G1 X123.123 Y71.558 E.02549
;WIDTH:0.349999
G1 X123.129 Y58.688 E.25508
;WIDTH:0.36177
G1 X123.123 Y57.448 E.02549
;WIDTH:0.349999
G1 X123.129 Y51.688 E.11416
;WIDTH:0.36177
G1 X123.123 Y50.448 E.02549
;WIDTH:0.349999
G1 X123.129 Y47.001 E.06832
M204 S8000
G1 X122.812 Y46.646 F18000
M204 S4000
G1 F1800
G1 X126.394 Y46.646 E.07099
;WIDTH:0.386642
G1 X126.748 Y46.664 E.00784
;WIDTH:0.423284
G1 X127.103 Y46.683 E.00867
G1 X131.179 Y46.683 E.09941
G1 X130.661 Y46.828 E.01312
G1 X130.039 Y47.074 E.01631
G1 X127.103 Y47.074 E.07161
;WIDTH:0.428655
G1 X127.014 Y47.079 E.0022
G1 X126.867 Y47.19 E.00455
;WIDTH:0.389327
G1 X126.721 Y47.301 E.00408
;WIDTH:0.349999
G1 X126.626 Y47.587 E.00597
G1 X126.626 Y50.053 E.04887
G1 X126.481 Y50.339 E.00636
G1 X126.376 Y50.012 E.00681
G1 X126.116 Y49.636 E.00906
G1 X125.748 Y49.365 E.00906
G1 X125.312 Y49.228 E.00906
G1 X124.855 Y49.24 E.00906
G1 X124.426 Y49.399 E.00907
G1 X124.073 Y49.69 E.00907
G1 X123.833 Y50.079 E.00906
G1 X123.732 Y50.525 E.00906
G1 X123.782 Y50.979 E.00905
G1 X123.976 Y51.393 E.00906
G1 X124.295 Y51.721 E.00907
G1 X124.702 Y51.928 E.00905
G1 X125.155 Y51.991 E.00906
G1 X125.604 Y51.904 E.00906
G1 X125.851 Y51.774 E.00553
G1 X125.633 Y52.61 E.01712
G1 X125.524 Y53.254 E.01295
G1 X125.477 Y54.13 E.01739
