; generated by PrusaSlicer 2.6.0-alpha4+win64 on 2023-04-27 at 19:59:51 UTC


;
;

;
;
; TODO: check the size of the extruder and the y-bar clearance. Optimize & test supports.

; external perimeters extrusion width = 0.26mm
; perimeters extrusion width = 0.27mm
; infill extrusion width = 0.27mm
; solid infill extrusion width = 0.27mm
; top infill extrusion width = 0.27mm
; first layer extrusion width = 0.35mm

; external perimeters extrusion width = 0.26mm
; perimeters extrusion width = 0.27mm
; infill extrusion width = 0.27mm
; solid infill extrusion width = 0.27mm
; top infill extrusion width = 0.27mm
; first layer extrusion width = 0.35mm

M107
M190 S90 ; set bed temperature and wait for it to be reached
M104 S255 ; set temperature
;TYPE:Custom
print_start
M109 S255 ; set temperature and wait for it to be reached
G21 ; set units to millimeters
G90 ; use absolute coordinates
M83 ; use relative distances for extrusion
SET_PRESSURE_ADVANCE EXTRUDER=extruder ADVANCE=0.055
SET_HEATER_TEMPERATURE HEATER=heater_bed TARGET=90
SET_HEATER_TEMPERATURE HEATER=extruder TARGET=250
M107
;LAYER_CHANGE
;Z:0.15
;HEIGHT:0.15
;BEFORE_LAYER_CHANGE
;0.15
G92 E0

G1 Z.15 F18000
;AFTER_LAYER_CHANGE
;0.15
G1 E-.75 F3000
G1 Z.55 F18000
G1 X149.914 Y163.774
G1 Z.15
G1 E.75 F1800
M204 S1000
;TYPE:Skirt/Brim
;WIDTH:0.35
G1 F360
G1 X152.018 Y162.77 E.0462
G1 X156.97 Y161.695 E.10043
G1 X161.072 Y161.001 E.08245
G1 X165.048 Y160.496 E.07944
G1 X169.118 Y160.148 E.08096
G1 X173.046 Y159.974 E.07793
G1 X175.997 Y159.944 E.05849
G1 X180.004 Y160.046 E.07944
G1 X182.798 Y160.213 E.05547
G1 X185.51 Y160.452 E.05396
G1 X189.488 Y160.94 E.07943
G1 X193.518 Y161.602 E.08094
G1 X197.517 Y162.431 E.08094
G1 X199.441 Y163.264 E.04155
G1 X200.917 Y164.752 E.04154
G1 X201.736 Y166.681 E.04153
G1 X201.761 Y168.876 E.04351
G1 X199.556 Y180.478 E.23406
G1 X198.782 Y182.426 E.04154
G1 X196.811 Y184.284 E.05368
G1 X196.043 Y184.711 E.01742
G1 X194.481 Y185.519 E.03485
G1 X192.185 Y186.569 E.05004
G1 X188.895 Y187.809 E.06968
G1 X185.518 Y188.783 E.06966
G1 X182.297 Y189.446 E.06518
G1 X179.349 Y189.84 E.05895
G1 X175.84 Y190.047 E.06967
G1 X172.435 Y189.979 E.0675
G1 X168.936 Y189.634 E.06968
G1 X166.228 Y189.172 E.05445
G1 X162.814 Y188.335 E.06967
G1 X159.477 Y187.228 E.06968
G1 X156.239 Y185.859 E.06968
G1 X153.216 Y184.292 E.06749
G1 X151.611 Y182.944 E.04154
G1 X150.514 Y180.701 E.04949
G1 X147.899 Y169.414 E.22963
G1 X147.821 Y167.319 E.04155
G1 X148.526 Y165.345 E.04154
G1 X149.889 Y163.802 E.0408
M204 S3000
G1 X150.141 Y164.037 F18000
M204 S1000
G1 F360
G1 X150.252 Y163.918 E.00323
G1 X152.091 Y163.079 E.04006
G1 X157.032 Y162.006 E.10021
G1 X161.117 Y161.315 E.08211
G1 X165.084 Y160.812 E.07925
G1 X169.14 Y160.465 E.08068
G1 X173.055 Y160.291 E.07767
G1 X175.993 Y160.262 E.05823
G1 X178.707 Y160.313 E.0538
G1 X182.7 Y160.525 E.07925
G1 X185.476 Y160.768 E.05523
G1 X189.445 Y161.255 E.07925
G1 X193.462 Y161.915 E.08068
G1 X197.448 Y162.741 E.08068
G1 X199.311 Y163.56 E.04033
G1 X200.719 Y165.029 E.04033
G1 X201.459 Y166.924 E.04032
G1 X201.449 Y168.817 E.03752
G1 X199.244 Y180.418 E.23404
G1 X198.482 Y182.305 E.04033
G1 X196.656 Y184.006 E.04946
G1 X195.215 Y184.791 E.03252
G1 X191.962 Y186.318 E.07122
G1 X189.815 Y187.153 E.04566
G1 X187.962 Y187.775 E.03874
G1 X184.59 Y188.674 E.06917
G1 X181.917 Y189.188 E.05395
G1 X178.555 Y189.592 E.06711
G1 X175.068 Y189.737 E.06917
G1 X171.58 Y189.602 E.06918
G1 X168.874 Y189.305 E.05395
G1 X165.542 Y188.701 E.06711
G1 X162.168 Y187.811 E.06916
G1 X158.874 Y186.655 E.06919
G1 X155.59 Y185.194 E.07124
G1 X153.371 Y184.014 E.04981
G1 X151.82 Y182.697 E.04033
G1 X150.824 Y180.629 E.04549
G1 X148.209 Y169.342 E.22963
G1 X148.144 Y167.308 E.04033
G1 X148.862 Y165.404 E.04033
G1 X150.115 Y164.065 E.03635
M204 S3000
G1 X150.356 Y164.305 F18000
M204 S1000
G1 F360
G1 X150.589 Y164.072 E.00653
G1 X152.165 Y163.389 E.03404
G1 X154.443 Y162.862 E.04634
G1 X158.424 Y162.074 E.08043
G1 X162.434 Y161.451 E.08043
G1 X165.187 Y161.121 E.05495
G1 X169.163 Y160.782 E.07909
G1 X173.065 Y160.609 E.07741
G1 X175.99 Y160.579 E.05798
G1 X178.695 Y160.63 E.05362
G1 X182.679 Y160.842 E.07907
G1 X185.442 Y161.084 E.05497
G1 X189.402 Y161.57 E.07907
G1 X193.406 Y162.228 E.08042
G1 X197.379 Y163.051 E.08041
G1 X199.179 Y163.856 E.03908
G1 X200.516 Y165.304 E.03906
G1 X201.175 Y167.162 E.03907
G1 X201.136 Y168.758 E.03164
G1 X198.932 Y180.359 E.23404
G1 X198.182 Y182.182 E.03907
G1 X196.501 Y183.728 E.04526
G1 X194.979 Y184.555 E.03433
G1 X191.841 Y186.024 E.06867
G1 X187.865 Y187.472 E.08387
G1 X184.517 Y188.365 E.06868
G1 X181.869 Y188.873 E.05344
G1 X178.429 Y189.284 E.06866
G1 X175.064 Y189.419 E.06675
G1 X171.602 Y189.285 E.06867
G1 X168.922 Y188.991 E.05343
G1 X165.608 Y188.39 E.06675
G1 X162.258 Y187.506 E.06867
G1 X158.989 Y186.358 E.06867
G1 X155.734 Y184.91 E.07061
G1 X153.525 Y183.736 E.04958
G1 X152.031 Y182.451 E.03906
G1 X151.134 Y180.558 E.04152
G1 X148.519 Y169.27 E.22965
G1 X148.468 Y167.3 E.03906
G1 X149.198 Y165.468 E.03909
G1 X150.33 Y164.332 E.03178
M204 S3000
G1 X150.56 Y164.577 F18000
M204 S1000
G1 F360
G1 X150.925 Y164.235 E.00991
G1 X152.238 Y163.698 E.02812
G1 X154.575 Y163.158 E.04754
G1 X158.543 Y162.375 E.08016
G1 X162.541 Y161.757 E.08018
G1 X166.497 Y161.31 E.0789
G1 X169.248 Y161.095 E.05469
G1 X173.226 Y160.922 E.07892
G1 X175.986 Y160.897 E.0547
G1 X178.682 Y160.948 E.05344
G1 X182.658 Y161.159 E.07891
G1 X185.407 Y161.4 E.05469
G1 X189.359 Y161.884 E.07891
G1 X193.35 Y162.541 E.08016
G1 X197.31 Y163.361 E.08015
G1 X199.044 Y164.152 E.03777
G1 X200.308 Y165.578 E.03777
G1 X200.883 Y167.395 E.03777
G1 X200.824 Y168.698 E.02585
G1 X198.619 Y180.3 E.23406
G1 X197.883 Y182.057 E.03775
G1 X196.346 Y183.451 E.04113
G1 X194.15 Y184.619 E.0493
G1 X191.01 Y186.022 E.06816
G1 X187.768 Y187.169 E.06816
G1 X184.445 Y188.055 E.06816
G1 X181.822 Y188.559 E.05294
G1 X178.498 Y188.959 E.06636
G1 X175.061 Y189.101 E.06818
G1 X171.624 Y188.968 E.06817
G1 X168.969 Y188.676 E.05294
G1 X165.674 Y188.079 E.06637
G1 X162.349 Y187.202 E.06815
G1 X159.103 Y186.062 E.06819
G1 X155.878 Y184.626 E.06997
G1 X153.68 Y183.459 E.04932
G1 X152.244 Y182.206 E.03777
G1 X151.443 Y180.486 E.0376
G1 X148.828 Y169.198 E.22965
G1 X148.793 Y167.293 E.03776
G1 X149.535 Y165.538 E.03776
G1 X150.533 Y164.603 E.0271
M204 S3000
G1 X150.749 Y164.853 F18000
M204 S1000
G1 F360
G1 X151.26 Y164.409 E.01342
G1 X152.312 Y164.007 E.02232
G1 X155.956 Y163.191 E.07401
G1 X159.863 Y162.474 E.07873
G1 X163.855 Y161.91 E.07991
G1 X167.867 Y161.512 E.07991
G1 X171.951 Y161.278 E.08108
G1 X175.982 Y161.215 E.0799
G1 X178.67 Y161.266 E.05328
G1 X182.637 Y161.476 E.07873
G1 X185.373 Y161.716 E.05443
G1 X189.316 Y162.199 E.07873
G1 X193.294 Y162.854 E.0799
G1 X197.242 Y163.672 E.07991
G1 X198.908 Y164.447 E.03642
G1 X200.094 Y165.85 E.03641
G1 X200.581 Y167.622 E.03642
G1 X200.512 Y168.639 E.0202
G1 X198.307 Y180.24 E.23404
G1 X197.584 Y181.93 E.03643
G1 X196.191 Y183.173 E.037
G1 X194.006 Y184.336 E.04906
G1 X190.889 Y185.728 E.06766
G1 X187.59 Y186.892 E.06934
G1 X184.373 Y187.746 E.06597
G1 X181.014 Y188.359 E.06767
G1 X178.384 Y188.65 E.05244
G1 X175.058 Y188.783 E.06597
G1 X171.646 Y188.651 E.06767
G1 X169.016 Y188.362 E.05244
G1 X165.74 Y187.768 E.06599
G1 X162.439 Y186.897 E.06766
G1 X159.218 Y185.765 E.06767
G1 X156.021 Y184.343 E.06935
G1 X153.835 Y183.181 E.04907
G1 X152.46 Y181.962 E.03642
G1 X151.753 Y180.414 E.03373
G1 X149.138 Y169.127 E.22963
G1 X149.118 Y167.289 E.03643
G1 X149.872 Y165.613 E.03642
G1 X150.721 Y164.877 E.02227
M204 S3000
G1 X150.944 Y165.23 F18000
M204 S1000
G1 F360
G1 X152.385 Y164.316 E.03382
G1 X156.017 Y163.503 E.07377
G1 X159.97 Y162.779 E.07965
G1 X163.95 Y162.219 E.07966
G1 X167.949 Y161.825 E.07964
G1 X171.961 Y161.596 E.07965
G1 X175.979 Y161.533 E.07964
G1 X178.657 Y161.583 E.05309
G1 X182.616 Y161.793 E.07858
G1 X185.339 Y162.032 E.05418
G1 X189.273 Y162.514 E.07855
G1 X193.238 Y163.166 E.07964
G1 X197.173 Y163.982 E.07965
G1 X198.769 Y164.741 E.03503
G1 X199.874 Y166.119 E.03501
G1 X200.2 Y168.58 E.0492
G1 X197.995 Y180.181 E.23404
G1 X197.285 Y181.8 E.03504
G1 X196.037 Y182.896 E.03292
G1 X193.792 Y184.087 E.05037
G1 X190.696 Y185.463 E.06715
G1 X187.499 Y186.587 E.06716
G1 X184.3 Y187.436 E.0656
G1 X180.967 Y188.045 E.06715
G1 X177.595 Y188.386 E.06717
G1 X174.976 Y188.465 E.05193
G1 X171.59 Y188.328 E.06716
G1 X168.303 Y187.933 E.06562
G1 X165.729 Y187.44 E.05194
G1 X162.53 Y186.592 E.06559
G1 X159.259 Y185.44 E.06873
G1 X156.165 Y184.059 E.06715
G1 X153.99 Y182.904 E.04881
G1 X152.677 Y181.72 E.03504
G1 X152.062 Y180.342 E.02991
G1 X149.447 Y169.055 E.22963
G1 X149.443 Y167.288 E.03502
G1 X150.21 Y165.695 E.03504
G1 X150.913 Y165.25 E.01649
M204 S3000
G1 X151.052 Y165.479 F18000
M204 S1000
G1 F360
G1 X152.459 Y164.625 E.03262
G1 X157.34 Y163.565 E.09899
G1 X161.289 Y162.896 E.07938
G1 X165.262 Y162.391 E.07938
G1 X169.098 Y162.061 E.07631
G1 X171.97 Y161.913 E.057
G1 X175.975 Y161.851 E.07939
G1 X178.645 Y161.901 E.05293
G1 X182.594 Y162.11 E.07838
G1 X185.304 Y162.348 E.05392
G1 X189.23 Y162.829 E.07839
G1 X193.182 Y163.479 E.07938
G1 X197.104 Y164.292 E.07938
G1 X198.626 Y165.034 E.03356
G1 X199.647 Y166.386 E.03358
G1 X199.888 Y168.52 E.04256
G1 X197.683 Y180.122 E.23406
G1 X196.988 Y181.666 E.03356
G1 X195.882 Y182.618 E.02892
G1 X192.896 Y184.165 E.06665
G1 X189.796 Y185.469 E.06665
G1 X186.672 Y186.502 E.06521
G1 X184.157 Y187.143 E.05144
G1 X180.92 Y187.731 E.06521
G1 X177.573 Y188.069 E.06667
G1 X174.979 Y188.148 E.05144
G1 X171.691 Y188.017 E.06522
G1 X168.351 Y187.619 E.06667
G1 X165.802 Y187.131 E.05144
G1 X162.62 Y186.288 E.06524
G1 X159.447 Y185.172 E.06666
G1 X156.308 Y183.776 E.06809
G1 X154.144 Y182.626 E.04857
G1 X152.897 Y181.48 E.03357
G1 X152.372 Y180.271 E.02612
G1 X149.757 Y168.983 E.22965
G1 X149.77 Y167.29 E.03356
G1 X150.548 Y165.785 E.03358
G1 X151.02 Y165.499 E.01094
M204 S3000
G1 X151.154 Y165.73 F18000
M204 S1000
G1 F360
G1 X152.532 Y164.935 E.03153
G1 X157.401 Y163.877 E.09875
G1 X161.338 Y163.21 E.07914
G1 X165.298 Y162.707 E.07912
G1 X169.12 Y162.378 E.07603
G1 X171.98 Y162.231 E.05676
G1 X175.971 Y162.168 E.07911
G1 X179.916 Y162.269 E.07821
G1 X182.619 Y162.431 E.05367
G1 X185.27 Y162.664 E.05274
G1 X189.187 Y163.144 E.07821
G1 X193.126 Y163.792 E.07912
G1 X197.035 Y164.603 E.07912
G1 X198.48 Y165.327 E.03203
G1 X199.412 Y166.649 E.03206
G1 X199.575 Y168.461 E.03606
G1 X197.37 Y180.062 E.23404
G1 X196.691 Y181.529 E.03204
G1 X195.727 Y182.341 E.02498
G1 X192.764 Y183.876 E.06614
G1 X189.688 Y185.17 E.06614
G1 X186.581 Y186.197 E.06486
G1 X183.558 Y186.945 E.06172
G1 X180.806 Y187.426 E.05537
G1 X177.551 Y187.752 E.06484
G1 X174.982 Y187.83 E.05094
G1 X171.647 Y187.695 E.06615
G1 X168.398 Y187.305 E.06486
G1 X165.874 Y186.821 E.05094
G1 X162.711 Y185.983 E.06485
G1 X159.562 Y184.876 E.06616
G1 X156.452 Y183.492 E.06747
G1 X154.299 Y182.348 E.04832
G1 X153.121 Y181.241 E.03204
G1 X152.682 Y180.199 E.02241
G1 X150.067 Y168.911 E.22965
G1 X150.096 Y167.295 E.03203
G1 X150.887 Y165.884 E.03206
G1 X151.121 Y165.749 E.00535
M204 S3000
G1 E-.75 F3000
G1 Z.55 F18000
G1 X153.583 Y168.277
G1 Z.15
G1 E.75 F1800
M204 S1000
;TYPE:External perimeter
;WIDTH:0.349999
G1 F180
G1 X155.565 Y167.819 E.04032
G1 X156.819 Y167.553 E.02541
G1 X159.34 Y167.072 E.05087
G1 X160.603 Y166.859 E.02539
G1 X162.983 Y166.505 E.04769
G1 X165.689 Y166.178 E.05402
G1 X168.243 Y165.942 E.05083
G1 X170.803 Y165.778 E.05084
G1 X173.367 Y165.684 E.05085
G1 X174.648 Y165.664 E.02539
G1 X177.068 Y165.674 E.04796
G1 X178.496 Y165.708 E.02831
G1 X181.059 Y165.827 E.05085
G1 X183.617 Y166.016 E.05084
G1 X186.169 Y166.275 E.05084
G1 X188.713 Y166.605 E.05084
G1 X191.247 Y167.004 E.05084
G1 X193.769 Y167.473 E.05084
G1 X196.106 Y167.975 E.04737
G1 X195.979 Y168.527 E.01123
G1 X193.657 Y168.03 E.04706
G1 X192.407 Y167.789 E.02523
G1 X190.602 Y167.475 E.03631
G1 X188.634 Y167.17 E.03947
G1 X187.369 Y166.998 E.0253
G1 X184.836 Y166.706 E.05054
G1 X182.297 Y166.485 E.05051
G1 X179.752 Y166.333 E.05053
G1 X177.201 Y166.252 E.05058
G1 X174.654 Y166.24 E.05048
G1 X172.106 Y166.299 E.05051
G1 X169.56 Y166.428 E.05053
G1 X167.016 Y166.628 E.05058
G1 X164.483 Y166.897 E.05048
G1 X161.956 Y167.235 E.05053
G1 X159.438 Y167.644 E.05056
G1 X156.935 Y168.121 E.0505
G1 X155.689 Y168.385 E.02524
G1 X153.926 Y168.797 E.03588
G1 X153.603 Y168.308 E.01162
M204 S3000
G1 X153.83 Y168.243 F18000
G1 X154.057 Y168.467
M204 S1000
;TYPE:Perimeter
;WIDTH:0.298436
G1 F360
G1 X155.621 Y168.103 E.02666
;WIDTH:0.29438
G1 X156.876 Y167.837 E.02098
G1 X159.383 Y167.359 E.04173
;WIDTH:0.294244
G1 X159.396 Y167.357 E.00021
;WIDTH:0.30289
G1 X161.908 Y166.954 E.04295
;WIDTH:0.285808
G1 X161.921 Y166.952 E.00021
;WIDTH:0.301518
G1 X164.443 Y166.615 E.04274
;WIDTH:0.283328
G1 X164.455 Y166.614 E.00019
;WIDTH:0.302188
G1 X166.986 Y166.344 E.04286
;WIDTH:0.284422
G1 X166.998 Y166.343 E.00019
;WIDTH:0.301686
G1 X169.535 Y166.145 E.04277
;WIDTH:0.283864
G1 X169.547 Y166.144 E.00019
;WIDTH:0.30107
G1 X172.089 Y166.015 E.04268
;WIDTH:0.283186
G1 X172.101 Y166.015 E.00019
;WIDTH:0.300358
G1 X174.645 Y165.952 E.04256
;WIDTH:0.291218
G1 X177.215 Y165.965 E.04152
;WIDTH:0.298598
G1 X179.759 Y166.05 E.04229
;WIDTH:0.28055
G1 X179.771 Y166.051 E.00019
;WIDTH:0.29755
G1 X182.311 Y166.202 E.04211
;WIDTH:0.27946
G1 X182.323 Y166.203 E.00019
;WIDTH:0.296396
G1 X184.859 Y166.425 E.04194
;WIDTH:0.278248
G1 X184.871 Y166.426 E.00018
;WIDTH:0.295134
G1 X187.399 Y166.718 E.04173
;WIDTH:0.276944
G1 X187.408 Y166.719 E.00014
;WIDTH:0.284996
G1 X188.678 Y166.888 E.0202
G1 X190.643 Y167.195 E.03136
;WIDTH:0.2889
G1 X192.452 Y167.513 E.0294
;WIDTH:0.27402
G1 X192.46 Y167.514 E.00012
;WIDTH:0.281984
G1 X193.719 Y167.753 E.01996
G1 X195.766 Y168.192 E.03261
M204 S3000
G1 E-.75 F3000
G1 Z.55 F18000
G1 X193.594 Y178.89
G1 Z.15
G1 E.75 F1800
M204 S1000
;TYPE:External perimeter
;WIDTH:0.349999
G1 F180
G1 X193.871 Y179.375 E.01107
G1 X192.681 Y180.023 E.02686
G1 X191.309 Y180.7 E.03032
G1 X189.911 Y181.323 E.03033
G1 X189.205 Y181.613 E.01513
G1 X187.968 Y182.079 E.0262
G1 X187.049 Y182.398 E.01928
G1 X185.586 Y182.849 E.03034
G1 X184.107 Y183.242 E.03033
G1 X182.614 Y183.575 E.03032
G1 X181.331 Y183.81 E.02585
G1 X180.353 Y183.963 E.01962
G1 X178.834 Y184.146 E.03032
G1 X177.307 Y184.268 E.03036
G1 X176.545 Y184.306 E.01512
G1 X175.25 Y184.335 E.02567
G1 X174.25 Y184.33 E.01982
G1 X172.958 Y184.281 E.02563
G1 X171.958 Y184.216 E.01986
G1 X170.435 Y184.064 E.03033
G1 X168.92 Y183.851 E.03032
G1 X167.414 Y183.578 E.03033
G1 X165.92 Y183.246 E.03033
G1 X164.441 Y182.854 E.03033
G1 X162.978 Y182.403 E.03034
G1 X162.256 Y182.156 E.01512
G1 X161.044 Y181.704 E.02564
G1 X159.412 Y181.024 E.03504
G1 X158.026 Y180.375 E.03033
G1 X157.345 Y180.03 E.01513
G1 X156.154 Y179.382 E.02687
G1 X156.439 Y178.881 E.01142
G1 X157.611 Y179.518 E.02644
G1 X158.965 Y180.185 E.02991
G1 X160.34 Y180.796 E.02982
G1 X161.038 Y181.081 E.01494
G1 X161.74 Y181.352 E.01491
G1 X163.164 Y181.853 E.02992
G1 X164.603 Y182.296 E.02984
G1 X166.196 Y182.714 E.03264
G1 X167.529 Y183.009 E.02706
G1 X169.012 Y183.278 E.02987
G1 X169.757 Y183.39 E.01493
G1 X171.253 Y183.57 E.02986
G1 X172.004 Y183.638 E.01495
G1 X173.509 Y183.728 E.02988
G1 X175.018 Y183.758 E.02991
G1 X176.518 Y183.729 E.02973
G1 X177.277 Y183.691 E.01506
G1 X178.776 Y183.572 E.0298
G1 X179.525 Y183.49 E.01493
G1 X181.021 Y183.281 E.02994
G1 X182.504 Y183.012 E.02987
G1 X183.972 Y182.686 E.0298
G1 X185.429 Y182.301 E.02987
G1 X186.867 Y181.859 E.02982
G1 X188.292 Y181.358 E.02994
G1 X189.696 Y180.801 E.02994
G1 X191.071 Y180.191 E.02981
G1 X192.423 Y179.525 E.02987
G1 X193.561 Y178.907 E.02567
M204 S3000
G1 X193.589 Y179.14 F18000
G1 E-.75 F3000
G1 Z.55 F18000
G1 X156.55 Y179.269
G1 Z.15
G1 E.75 F1800
M204 S1000
;TYPE:Perimeter
;WIDTH:0.29118
G1 F360
G1 X157.47 Y179.769 E.01691
;WIDTH:0.299276
G1 X158.833 Y180.438 E.02529
;WIDTH:0.300074
G1 X160.221 Y181.054 E.02537
;WIDTH:0.287166
G1 X160.927 Y181.345 E.01214
;WIDTH:0.287518
G1 X161.635 Y181.619 E.01209
